X:1
T:Bride of Christ, 87.87 D
T:Spenser Nottingham, 1864
T:Bride of Christ, 87.87 D
T:Public Domain
C:Spenser Nottingham, 1864
Z:Public Domain
%%score ( 1 2 ) ( 3 4 )
L:1/8
M:4/4
K:F
V:1 treble 
V:2 treble 
V:3 bass 
V:4 bass 
V:1
 C2 D2 | F2 [A,F]2 [CE]2 [CF]2 | [EG]2 F2 [FB]2 [GB]2 | [FA]2 [EG]2 [DF]2 [EG]2 | [FA]4 C2 [CF]2 | %5
 D2 [^CE]2 [DF]2 [EG]2 | [FA]2 [EG]2 [Gc]2 (FG) | [FA]2 [FB]2 [FA]2 [EG]2 | F4 [B,D]3 [B,D] | %9
 [B,D]2 [B,E]2 [CF]2 [CG]2 | [CA]2 [CF]2 [CG]3 [CG] | [FA]2 [Gc]2 [F=B]3 [FB] x | %12
 [Ec]4 [Fd]3 [Fd] | (FE) F2 [FB]2 [Gc]2 | [GB]2 [FA]2 [DG]2 D2 | [CE]2 F2 F2 z G x | F4 |] %17
V:2
 C2 D2 | F2 x6 | x2 F2 x4 | x8 | x4 C2 x2 | D2 x6 | x6 B2 | x8 | F4 x4 | x8 | x8 | x9 | x8 | %13
 c2 F2 x4 | x6 D2 | x2 F2 G3 E2 | F4 |] %17
V:3
 C,2 D,2 | F,2 [D,F,]2 [C,G,]2 [A,,F,]2 | [C,B,]2 [F,A,]2 [D,D]2 [E,C]2 | %3
 [F,C]2 [C,C]2 [D,A,]2 [C,C]2 | [F,C]4 [C,C]2 [A,,F,]2 | [B,,F,]2 [A,,A,]2 [D,A,]2 [C,C]2 | %6
 [F,C]2 [C,C]2 [E,C]2 (D,E,) | [F,C]2 [D,B,]2 [C,C]2 [C,C]2 | [F,A,]4 [B,,F,]3 [B,,F,] | %9
 [B,,F,]2 [G,,G,]2 [A,,F,]2 [C,E,]2 | F,2 [F,A,]2 [E,C]3 [E,C] | [F,C]2 [E,C]2 D,2 z D x | %12
 [C,C]4 [B,,F,]3 [B,,B,] | (A,G,) [D,F,]2 [G,D]2 [E,C]2 | [F,C]2 [F,C]2 [B,,B,]2 [B,,G,]2 | %15
 (CB,) [D,A,]2 [B,,D]2 (CB,) x | [F,A,]4 |] %17
V:4
 C,2 D,2 | F,2 x6 | x8 | x8 | x8 | x8 | x6 C2 | x8 | x8 | x8 | F,2 x6 | x4 D3 G,,2 | x8 | C,2 x6 | %14
 x8 | C,2 x3 C,2 x2 | x4 |] %17

